icons/svg/seamark/notice_information_vehicleloadingberth.svg

<?xml version="1.0" encoding="UTF-8" standalone="no"?>
<svg
   xmlns:dc="http://purl.org/dc/elements/1.1/"
   xmlns:cc="http://creativecommons.org/ns#"
   xmlns:rdf="http://www.w3.org/1999/02/22-rdf-syntax-ns#"
   xmlns:svg="http://www.w3.org/2000/svg"
   xmlns="http://www.w3.org/2000/svg"
   xmlns:sodipodi="http://sodipodi.sourceforge.net/DTD/sodipodi-0.dtd"
   xmlns:inkscape="http://www.inkscape.org/namespaces/inkscape"
   width="320"
   height="320"
   id="svg2"
   version="1.1"
   inkscape:version="0.48.4 r9939"
   sodipodi:docname="notice_information_mooringpermitted.svg">
  <defs
     id="defs13">
    <inkscape:path-effect
       effect="gears"
       id="path-effect3774"
       is_visible="true"
       teeth="6"
       phi="-1.2" />
    <inkscape:path-effect
       effect="bend_path"
       id="path-effect3772"
       is_visible="false"
       bendpath="m 95.790098,316.51174 c 144.429032,-206.42506 223.313032,-11.7428 339.548092,0"
       prop_scale="1.19"
       scale_y_rel="false"
       vertical="false"
       bendpath-nodetypes="cc" />
  </defs>
  <sodipodi:namedview
     pagecolor="#ffffff"
     bordercolor="#666666"
     borderopacity="1"
     objecttolerance="10"
     gridtolerance="10"
     guidetolerance="10"
     inkscape:pageopacity="0"
     inkscape:pageshadow="2"
     inkscape:window-width="1920"
     inkscape:window-height="1004"
     id="namedview11"
     showgrid="true"
     inkscape:zoom="2"
     inkscape:cx="104.94063"
     inkscape:cy="180.89104"
     inkscape:window-x="1680"
     inkscape:window-y="0"
     inkscape:window-maximized="1"
     inkscape:current-layer="svg2"
     inkscape:snap-bbox="true"
     inkscape:object-nodes="true"
     inkscape:snap-midpoints="true"
     inkscape:snap-grids="true"
     inkscape:snap-bbox-edge-midpoints="true"
     showguides="true"
     inkscape:guide-bbox="true"
     inkscape:snap-global="false">
    <inkscape:grid
       type="xygrid"
       id="grid2990"
       empspacing="5"
       visible="true"
       enabled="true"
       snapvisiblegridlinesonly="true"
       spacingx="10px"
       spacingy="10px"
       dotted="false" />
    <sodipodi:guide
       orientation="1,0"
       position="55.202458,260.58927"
       id="guide3872" />
    <sodipodi:guide
       orientation="1,0"
       position="265.17816,340"
       id="guide3874" />
    <sodipodi:guide
       orientation="0,1"
       position="317.80107,264.96094"
       id="guide3876" />
    <sodipodi:guide
       orientation="0,1"
       position="325.098,54.759006"
       id="guide3878" />
  </sodipodi:namedview>
  <metadata
     id="metadata2975">image/svg+xmlen<rdf:RDF>
  <cc:Work
     rdf:about="">
    <dc:format>image/svg+xml</dc:format>
    <dc:type
       rdf:resource="http://purl.org/dc/dcmitype/StillImage" />
    <dc:title></dc:title>
  </cc:Work>
</rdf:RDF>
</metadata>
  <path
     style="fill:#fefefe;stroke:none;fill-opacity:1"
     d="m 112.35911,156.34938 c -5.98934,0 -9.16655,3.26979 -10.63334,7.0972 l -7.78616,20.10456 c -3.08657,0.39578 -8.558134,4.01885 -8.558134,10.88236 l 0,25.5665 7.578634,0 0,8.1763 c 0,10.05924 14.23589,9.94078 14.23589,0 l 0,-8.1763 25.608,0 0.008,0 25.60798,0 0,8.1763 c 0,9.94078 14.23583,10.05924 14.23591,0 l 0,-8.1763 7.57863,0 0,-25.5665 c 0,-6.86351 -5.47152,-10.48658 -8.55815,-10.88236 l -7.79445,-20.10456 c -1.46678,-3.82741 -4.64396,-7.0972 -10.63335,-7.0972 l -11.00684,0 -18.74326,0 -11.13968,0 z m -0.0913,7.32132 20.51962,0 0.0166,0 0.008,0 20.52788,0 c 2.56674,0.0239 3.66604,1.62908 4.39943,3.85157 l 5.86867,15.82135 -30.79598,0 -0.008,0 -0.0166,0 -30.78771,0 5.86867,-15.82135 c 0.7334,-2.22249 1.83242,-3.82767 4.39942,-3.85157 z m -11.96146,27.36777 c 3.63191,0 6.57425,3.03026 6.57425,6.77346 -1e-5,3.74346 -2.94234,6.78176 -6.57425,6.78176 -3.63164,0 -6.57424,-3.0383 -6.57424,-6.78176 0,-3.7432 2.9426,-6.77346 6.57424,-6.77346 z m 65.00364,0 c 3.63191,0 6.57427,3.03026 6.57425,6.77346 0,3.74346 -2.94234,6.78176 -6.57425,6.78176 -3.63163,0 -6.58256,-3.0383 -6.58256,-6.78176 0,-3.7432 2.95093,-6.77346 6.58256,-6.77346 z"
     id="path2301"
     inkscape:connector-curvature="0" />
  <path
     style="fill:none;stroke:#fefefe;stroke-width:12;stroke-linecap:round;stroke-linejoin:round;stroke-opacity:1;stroke-miterlimit:4;stroke-dasharray:none"
     d="M 230,235.85429 230,135.79868 140,80"
     id="path4526"
     inkscape:connector-curvature="0" />
  <path
     style="color:#000000;fill:none;stroke:#fefefe;stroke-width:12;stroke-linecap:round;stroke-linejoin:round;stroke-miterlimit:4;stroke-opacity:1;stroke-dasharray:none;stroke-dashoffset:0;marker:none;visibility:visible;display:inline;overflow:visible;enable-background:accumulate"
     d="M 192.82843,115.29258 230,185.82648"
     id="path4528"
     inkscape:connector-curvature="0"
     sodipodi:nodetypes="cc" />
</svg>

<svg width="320" height="320" viewBox="0 0 320 320" fill="none" xmlns="http://www.w3.org/2000/svg">
<path d="M112.359 156.35C106.37 156.35 103.193 159.619 101.726 163.447L93.9397 183.551C90.8532 183.947 85.3816 187.57 85.3816 194.434V220H92.9602V228.177C92.9602 238.236 107.196 238.117 107.196 228.177V220H132.804H132.812H158.42V228.177C158.42 238.117 172.656 238.236 172.656 228.177V220H180.235V194.434C180.235 187.57 174.763 183.947 171.676 183.551L163.882 163.447C162.415 159.619 159.238 156.35 153.249 156.35H142.242H123.499H112.359H112.359ZM112.268 163.671H132.788H132.804H132.812H153.34C155.907 163.695 157.006 165.3 157.739 167.522L163.608 183.344H132.812H132.804H132.788H102L107.869 167.522C108.602 165.3 109.701 163.695 112.268 163.671V163.671ZM100.306 191.039C103.938 191.039 106.881 194.069 106.881 197.812C106.881 201.556 103.938 204.594 100.306 204.594C96.6748 204.594 93.7322 201.556 93.7322 197.812C93.7322 194.069 96.6748 191.039 100.306 191.039ZM165.31 191.039C168.942 191.039 171.884 194.069 171.884 197.812C171.884 201.556 168.942 204.594 165.31 204.594C161.678 204.594 158.728 201.556 158.728 197.812C158.728 194.069 161.678 191.039 165.31 191.039Z" fill="#FEFEFE"/>
<path d="M230 235.854V135.799L140 80" stroke="#FEFEFE" stroke-width="12" stroke-linecap="round" stroke-linejoin="round"/>
<path d="M192.828 115.293L230 185.827" stroke="#FEFEFE" stroke-width="12" stroke-linecap="round" stroke-linejoin="round"/>
</svg>
